packages/assets/static/images/icons/camera-plus.svg

<svg width="24" height="24" viewBox="0 0 24 24" xmlns="http://www.w3.org/2000/svg">
<path d="M16.1249 13.1255C16.1249 13.4239 16.0064 13.71 15.7954 13.921C15.5845 14.132 15.2983 14.2505 14.9999 14.2505H13.1249V16.1255C13.1249 16.4239 13.0064 16.71 12.7954 16.921C12.5845 17.132 12.2983 17.2505 11.9999 17.2505C11.7016 17.2505 11.4154 17.132 11.2044 16.921C10.9935 16.71 10.8749 16.4239 10.8749 16.1255V14.2505H8.99994C8.70157 14.2505 8.41542 14.132 8.20444 13.921C7.99347 13.71 7.87494 13.4239 7.87494 13.1255C7.87494 12.8271 7.99347 12.541 8.20444 12.33C8.41542 12.119 8.70157 12.0005 8.99994 12.0005H10.8749V10.1255C10.8749 9.82712 10.9935 9.54097 11.2044 9.32999C11.4154 9.11901 11.7016 9.00049 11.9999 9.00049C12.2983 9.00049 12.5845 9.11901 12.7954 9.32999C13.0064 9.54097 13.1249 9.82712 13.1249 10.1255V12.0005H14.9999C15.2983 12.0005 15.5845 12.119 15.7954 12.33C16.0064 12.541 16.1249 12.8271 16.1249 13.1255ZM22.1249 7.87549V18.3755C22.1249 18.7202 22.057 19.0616 21.9251 19.38C21.7932 19.6985 21.5998 19.9879 21.3561 20.2316C21.1123 20.4754 20.823 20.6688 20.5045 20.8007C20.186 20.9326 19.8447 21.0005 19.4999 21.0005H4.49994C3.80375 21.0005 3.13607 20.7239 2.64378 20.2316C2.1515 19.7394 1.87494 19.0717 1.87494 18.3755V7.87549C1.87494 7.1793 2.1515 6.51162 2.64378 6.01933C3.13607 5.52705 3.80375 5.25049 4.49994 5.25049H6.89806L7.84119 3.8358C8.01236 3.57891 8.24431 3.36825 8.51645 3.22254C8.78859 3.07682 9.09249 3.00054 9.40119 3.00049H14.5987C14.9074 3.00054 15.2113 3.07682 15.4834 3.22254C15.7556 3.36825 15.9875 3.57891 16.1587 3.8358L17.1018 5.25049H19.4999C19.8447 5.25049 20.186 5.31839 20.5045 5.4503C20.823 5.58222 21.1123 5.77558 21.3561 6.01933C21.5998 6.26309 21.7932 6.55246 21.9251 6.87094C22.057 7.18942 22.1249 7.53077 22.1249 7.87549ZM19.8749 7.87549C19.8749 7.77603 19.8354 7.68065 19.7651 7.61032C19.6948 7.54 19.5994 7.50049 19.4999 7.50049H16.4999C16.3145 7.50076 16.1319 7.4552 15.9683 7.36786C15.8048 7.28052 15.6653 7.15411 15.5624 6.99986L14.3981 5.25049H9.60181L8.43744 6.99986C8.33453 7.15411 8.19509 7.28052 8.03153 7.36786C7.86797 7.4552 7.68536 7.50076 7.49994 7.50049H4.49994C4.40048 7.50049 4.3051 7.54 4.23477 7.61032C4.16445 7.68065 4.12494 7.77603 4.12494 7.87549V18.3755C4.12494 18.4749 4.16445 18.5703 4.23477 18.6407C4.3051 18.711 4.40048 18.7505 4.49994 18.7505H19.4999C19.5994 18.7505 19.6948 18.711 19.7651 18.6407C19.8354 18.5703 19.8749 18.4749 19.8749 18.3755V7.87549Z"/>
</svg>

<svg viewBox="0 0 24 24" xmlns="http://www.w3.org/2000/svg" aria-hidden="true" fill="currentColor" height="24px" width="24px"><path d="M16.125 13.126A1.125 1.125 0 0 1 15 14.25h-1.875v1.874a1.125 1.125 0 1 1-2.25 0v-1.874H9A1.125 1.125 0 1 1 9 12h1.875v-1.875a1.125 1.125 0 0 1 2.25 0V12H15a1.125 1.125 0 0 1 1.125 1.125m6-5.25v10.5A2.625 2.625 0 0 1 19.5 21h-15a2.625 2.625 0 0 1-2.625-2.625v-10.5A2.625 2.625 0 0 1 4.5 5.25h2.398l.943-1.414A1.88 1.88 0 0 1 9.401 3H14.6a1.88 1.88 0 0 1 1.56.836l.943 1.414H19.5a2.625 2.625 0 0 1 2.625 2.625m-2.25 0A.375.375 0 0 0 19.5 7.5h-3a1.13 1.13 0 0 1-.938-.5l-1.164-1.75H9.602L8.437 7a1.13 1.13 0 0 1-.937.5h-3a.375.375 0 0 0-.375.375v10.5a.375.375 0 0 0 .375.375h15a.375.375 0 0 0 .375-.375z"/></svg>
